public/logos/playstation.svg

<svg xmlns="http://www.w3.org/2000/svg" width="255" height="200" fill="none"><g clip-path="url(#a)"><mask id="b" width="255" height="200" x="0" y="0" maskUnits="userSpaceOnUse" style="mask-type:luminance"><path fill="#fff" d="M255 200V0H0v200z"/></mask><g mask="url(#b)"><path fill="#fff" fill-rule="evenodd" d="M19.14 170.162C-.97 164.397-4.323 152.41 4.84 145.503c8.477-6.396 22.895-11.188 22.895-11.188l59.543-21.518v24.526l-42.847 15.59c-7.58 2.767-8.737 6.671-2.58 8.716 6.154 2.048 17.288 1.464 24.875-1.302l20.552-7.58v21.942c-1.3.244-2.75.48-4.098.702-20.558 3.422-42.458 1.995-64.041-5.229m125.619 2.553 66.81-24.189c7.588-2.768 8.745-6.669 2.588-8.717-6.158-2.047-17.296-1.465-24.879 1.305l-44.519 15.939v-25.364l2.573-.886s12.861-4.626 30.949-6.656c18.087-2.026 40.24.273 57.623 6.967 19.601 6.296 21.806 15.569 16.823 21.96-4.98 6.386-17.185 10.938-17.185 10.938l-90.783 33.145zm7.812-156.776c35.178 12.267 47.099 27.546 47.099 61.963 0 33.542-20.377 46.259-46.27 33.558V48.95c0-7.328-1.322-14.08-8.1-16-5.194-1.694-8.415 3.212-8.415 10.541V200l-41.537-13.4V0c17.665 3.329 43.391 11.201 57.223 15.939m92.5 169.827c0 .528-.137.896-.411 1.086-.301.207-.718.311-1.243.311h-2.622v-2.711h2.778q.581 0 .91.167c.396.201.588.576.588 1.147m1.88 6.189c-.128-.056-.217-.195-.278-.424-.042-.153-.069-.404-.076-.731l-.048-1.237c-.019-.584-.13-1.002-.339-1.273-.139-.188-.337-.333-.564-.472.288-.196.534-.424.714-.703.244-.389.372-.877.372-1.467 0-1.14-.471-1.933-1.398-2.365-.474-.215-1.076-.327-1.788-.327h-4.392v9.611h1.641v-3.937h2.58c.465 0 .807.049 1.009.147q.507.25.537 1.022l.076 1.537q.025.55.069.758.04.217.116.362l.061.111h1.833v-.556zm-11.249-4.012c0-1.919.737-3.721 2.07-5.076a6.96 6.96 0 0 1 4.994-2.107c1.889 0 3.661.75 4.994 2.107a7.18 7.18 0 0 1 2.069 5.076c0 3.956-3.17 7.176-7.063 7.176a6.96 6.96 0 0 1-4.994-2.1 7.2 7.2 0 0 1-2.07-5.076m7.064 8.63c2.267 0 4.4-.898 6.003-2.532a8.63 8.63 0 0 0 2.487-6.098 8.65 8.65 0 0 0-2.487-6.105 8.37 8.37 0 0 0-6.003-2.524c-4.678 0-8.49 3.865-8.49 8.629 0 2.301.883 4.471 2.487 6.098a8.36 8.36 0 0 0 6.003 2.532" clip-rule="evenodd"/></g></g><defs><clipPath id="a"><path fill="#fff" d="M0 0h255v200H0z"/></clipPath></defs></svg>

<svg width="255" height="200" viewBox="0 0 255 200" fill="none" xmlns="http://www.w3.org/2000/svg">
<g clip-path="url(#clip0_36_92)">
<mask id="mask0_36_92" style="mask-type:luminance" maskUnits="userSpaceOnUse" x="0" y="0" width="255" height="200">
<path d="M255 200V0L0 0L0 200H255Z" fill="white"/>
</mask>
<g mask="url(#mask0_36_92)">
<path fill-rule="evenodd" clip-rule="evenodd" d="M19.1398 170.162C-0.96986 164.397 -4.32274 152.41 4.84103 145.503C13.3175 139.107 27.7362 134.315 27.7362 134.315L87.2788 112.797V137.323L44.432 152.913C36.8523 155.68 35.6947 159.584 41.8521 161.629C48.0057 163.677 59.1401 163.093 66.7274 160.327L87.2788 152.747V174.689C85.9784 174.933 84.5294 175.169 83.1814 175.391C62.6225 178.813 40.7231 177.386 19.1398 170.162ZM144.759 172.715L211.569 148.526C219.157 145.758 220.314 141.857 214.157 139.809C207.999 137.762 196.861 138.344 189.278 141.114L144.759 157.053V131.689L147.332 130.803C147.332 130.803 160.193 126.177 178.281 124.147C196.368 122.121 218.521 124.42 235.904 131.114C255.505 137.41 257.71 146.683 252.727 153.074C247.747 159.46 235.542 164.012 235.542 164.012L144.759 197.157V172.715ZM152.571 15.9388C187.749 28.2065 199.67 43.4854 199.67 77.9022C199.67 111.444 179.293 124.161 153.4 111.46V48.9506C153.4 41.6218 152.078 34.8696 145.3 32.9498C140.106 31.2565 136.885 36.1624 136.885 43.4912V200L95.3478 186.6V0C113.013 3.32866 138.739 11.2013 152.571 15.9388ZM245.071 185.766C245.071 186.294 244.934 186.662 244.66 186.852C244.359 187.059 243.942 187.163 243.417 187.163H240.795V184.452H243.573C243.96 184.452 244.264 184.508 244.483 184.619C244.879 184.82 245.071 185.195 245.071 185.766ZM246.951 191.955C246.823 191.899 246.734 191.76 246.673 191.531C246.631 191.378 246.604 191.127 246.597 190.8L246.549 189.563C246.53 188.979 246.419 188.561 246.21 188.29C246.071 188.102 245.873 187.957 245.646 187.818C245.934 187.622 246.18 187.394 246.36 187.115C246.604 186.726 246.732 186.238 246.732 185.648C246.732 184.508 246.261 183.715 245.334 183.283C244.86 183.068 244.258 182.956 243.546 182.956H239.365H239.154V183.173V192.358V192.567H239.365H240.588H240.795V192.358V188.63H243.375C243.84 188.63 244.182 188.679 244.384 188.777C244.723 188.944 244.9 189.284 244.921 189.799L244.997 191.336C245.014 191.704 245.037 191.955 245.066 192.094C245.092 192.24 245.131 192.358 245.182 192.456L245.243 192.567H245.367H246.865H247.076V192.358V192.149V192.011L246.951 191.955ZM235.702 187.943C235.702 186.024 236.439 184.222 237.772 182.867C239.106 181.51 240.879 180.76 242.766 180.76C244.655 180.76 246.427 181.51 247.76 182.867C249.095 184.222 249.829 186.024 249.829 187.943C249.829 191.899 246.659 195.119 242.766 195.119C240.879 195.119 239.106 194.374 237.772 193.019C236.439 191.663 235.702 189.861 235.702 187.943ZM242.766 196.573C245.033 196.573 247.166 195.675 248.769 194.041C250.374 192.414 251.256 190.244 251.256 187.943C251.256 185.635 250.374 183.471 248.769 181.838C247.166 180.21 245.033 179.314 242.766 179.314C238.088 179.314 234.276 183.179 234.276 187.943C234.276 190.244 235.159 192.414 236.763 194.041C238.368 195.675 240.498 196.573 242.766 196.573Z" fill="white"/>
</g>
</g>
<defs>
<clipPath id="clip0_36_92">
<rect width="255" height="200" fill="white"/>
</clipPath>
</defs>
</svg>
